assets/images/nginx.svg

<?xml version="1.0" encoding="UTF-8"?>
<!DOCTYPE svg  PUBLIC '-//W3C//DTD SVG 1.1//EN'  'http://www.w3.org/Graphics/SVG/1.1/DTD/svg11.dtd'>
<svg clip-rule="evenodd" fill-rule="evenodd" stroke-linejoin="round" stroke-miterlimit="2" version="1.1" viewBox="0 0 100 100" xml:space="preserve" xmlns="http://www.w3.org/2000/svg">
    <g transform="matrix(1.547 0 0 1.547 .49581 .50041)">
        <path d="m4.116 47.314v-30.542c-0.031-0.549 0.274-1.064 0.77-1.302l26.346-15.216c0.474-0.296 1.006-0.356 1.48-0.06l26.464 15.274c0.462 0.266 0.737 0.77 0.71 1.302v30.49c0.027 0.532-0.248 1.036-0.71 1.302l-22.734 13.14c-1.191 0.713-2.395 1.404-3.612 2.072-0.532 0.296-1.066 0.296-1.6 0l-26.404-15.216c-0.474-0.296-0.71-0.652-0.71-1.244zm18.648-20.954-4e-3 -0.022c0.06 0.06 0.12 0.12 0.12 0.18l14.98 17.94c0.534 0.592 0.948 1.244 1.54 1.776 1.078 0.977 2.456 1.561 3.908 1.658 1.004 0.06 1.952-0.058 2.84-0.532 1.184-0.652 1.836-1.68 1.836-3.08v-25.2c-0.236-1.72-1.776-3.376-4.084-3.08-1.84 0.178-3.14 1.658-3.14 3.552v18c-0.116-0.116-0.176-0.236-0.236-0.296l-15.748-18.886c-0.81-0.948-1.756-1.716-3-2.072-1.304-0.414-2.606-0.534-3.908 0s-2.308 1.714-2.308 3.374v24.726c0 0.652 0.118 1.244 0.474 1.776 0.692 1.124 1.7 1.656 3 1.716 2.13 0.058 3.73-1.718 3.73-3.73v-17.8z"/>
    </g>
</svg>

<?xml version="1.0" encoding="UTF-8" standalone="no"?>
<!DOCTYPE svg PUBLIC "-//W3C//DTD SVG 1.1//EN" "http://www.w3.org/Graphics/SVG/1.1/DTD/svg11.dtd">
<svg width="100%" height="100%" viewBox="0 0 100 100" version="1.1" xmlns="http://www.w3.org/2000/svg" xmlns:xlink="http://www.w3.org/1999/xlink" xml:space="preserve" xmlns:serif="http://www.serif.com/" style="fill-rule:evenodd;clip-rule:evenodd;stroke-linejoin:round;stroke-miterlimit:2;">
    <g id="nginx" transform="matrix(1.54697,0,0,1.54697,0.495809,0.50041)">
        <path d="M4.116,47.314L4.116,16.772C4.085,16.223 4.39,15.708 4.886,15.47L31.232,0.254C31.706,-0.042 32.238,-0.102 32.712,0.194L59.176,15.468C59.638,15.734 59.913,16.238 59.886,16.77L59.886,47.26C59.913,47.792 59.638,48.296 59.176,48.562L36.442,61.702C35.251,62.415 34.047,63.106 32.83,63.774C32.298,64.07 31.764,64.07 31.23,63.774L4.826,48.558C4.352,48.262 4.116,47.906 4.116,47.314ZM22.764,26.36L22.76,26.338C22.82,26.398 22.88,26.458 22.88,26.518L37.86,44.458C38.394,45.05 38.808,45.702 39.4,46.234C40.478,47.211 41.856,47.795 43.308,47.892C44.312,47.952 45.26,47.834 46.148,47.36C47.332,46.708 47.984,45.68 47.984,44.28L47.984,19.08C47.748,17.36 46.208,15.704 43.9,16C42.06,16.178 40.76,17.658 40.76,19.552L40.76,37.552C40.644,37.436 40.584,37.316 40.524,37.256L24.776,18.37C23.966,17.422 23.02,16.654 21.776,16.298C20.472,15.884 19.17,15.764 17.868,16.298C16.566,16.832 15.56,18.012 15.56,19.672L15.56,44.398C15.56,45.05 15.678,45.642 16.034,46.174C16.726,47.298 17.734,47.83 19.034,47.89C21.164,47.948 22.764,46.172 22.764,44.16L22.764,26.36Z"/>
    </g>
</svg>
